X:981
T:Bunch Of Currants, The
T:Miss Brady
T:Esther's Reel
T:Three-Headed Monster, The
T:3 Headed Monster, The
R:reel
H:Also played with parts in reversed order
Z:id:hn-reel-981
M:C|
L:1/8
K:Edor
CDEF GABc | dD~D2 ADFD | EFGA BAGF |1 GBAF GFED :|2 GBAF GEE2 ||
|: g3e fedf | efga gfed | eB~B2 dBAF |1 GBAF GEE2 :|2 GBAF GFED ||
P:variations
|: CDEF GABc | dD~D2 ADFD | EFGA BAGF |1 GBAF GFED :|2 GBAF GEE2 ||
|: g2eg ~f3d | efga ~g3f | eB~B2 dBAF |1 GBAF GEE2 :|2 GBAF GFED ||
P:version 2
|: EFGA BABc | dD~D2 dDFD | EFGA BAGF |1 GBAF GEED :|2 GBAF GEE2 ||
|: efge fgaf | efge fd~d2 | gfed egfe |1 dBAF GEE2 :|2 dBAF GEED ||

